src/assets/svg/communication.svg

<svg width="64" height="64" viewBox="0 0 64 64" fill="none" xmlns="http://www.w3.org/2000/svg">
<path d="M31.9999 63.9999C49.673 63.9999 63.9999 49.673 63.9999 31.9999C63.9999 14.3269 49.673 0 31.9999 0C14.3269 0 0 14.3269 0 31.9999C0 49.673 14.3269 63.9999 31.9999 63.9999Z" fill="#72CA1A"/>
<path d="M32.2999 4.19995H49.8C51.1 4.19995 52.0999 5.20001 52.0999 6.4999V17.1999L56.7 21.2999H32.2999C30.9999 21.2999 30 20.2998 30 18.9999V6.4999C29.9999 5.19988 31.1 4.19995 32.2999 4.19995Z" fill="#434752"/>
<path d="M56.7 22.3C56.7 22.3 56.6 22.3 56.7 22.3H32.3C30.5 22.3 29 20.8 29 19V6.49995C29 4.6999 30.5 3.19995 32.3 3.19995H49.8001C51.6001 3.19995 53.1 4.6999 53.1 6.49995V16.6999L57.2 20.3999C57.5 20.6 57.7001 20.8999 57.7001 21.1999C57.6999 21.8 57.1999 22.3 56.7 22.3ZM32.3 5.19993C31.6 5.19993 31 5.79999 31 6.49995V19C31 19.6999 31.6 20.3 32.3 20.3H53.9999L51.3999 17.9C51.1998 17.7 51.0999 17.4 51.0999 17.2001V6.49995C51.0999 5.79999 50.4999 5.19993 49.7999 5.19993H32.3Z" fill="#193651"/>
<path d="M48.4001 7.80005H33.6001V17.7H48.4001V7.80005Z" fill="white"/>
<path d="M38.2998 14H20.7999C19.4998 14 18.4999 15.0001 18.4999 16.2999V26.9999L13.8999 31.0999H38.1999C39.4999 31.0999 40.4998 30.0999 40.4998 28.8V16.2999C40.4998 15.0001 39.4998 14 38.2998 14Z" fill="#4AA200"/>
<path d="M38.2999 32.1H13.8999C13.4999 32.1 13.0999 31.8001 12.9999 31.5C12.8999 31.1 12.9999 30.7 13.2999 30.4L17.4999 26.6V16.3C17.4999 14.5 18.9999 13 20.7999 13H38.2999C40.1 13 41.5999 14.5 41.5999 16.3V28.8C41.4999 30.6001 40.1 32.1 38.2999 32.1ZM16.5 30.1001H38.1999C38.8999 30.1001 39.4999 29.5 39.4999 28.8V16.3C39.4999 15.6 38.8999 15 38.1999 15H20.8C20.1001 15 19.5 15.6 19.5 16.3V27C19.5 27.3 19.4 27.6 19.2 27.7L16.5 30.1001Z" fill="#193651"/>
<path d="M36.9001 17.6001H22.1001V27.5001H36.9001V17.6001Z" fill="white"/>
<path d="M30.9001 26.9001H51.4001C52.9 26.9001 54.1 28.1001 54.1 29.6001V42.2L59.5 47H30.9001C29.4002 47 28.2002 45.8 28.2002 44.3V29.5001C28.3001 28.1001 29.5001 26.9001 30.9001 26.9001Z" fill="#575B66"/>
<path d="M59.5998 47.9999H30.8997C28.8997 47.9999 27.1997 46.2999 27.1997 44.2999V29.4998C27.1997 27.4998 28.8997 25.7998 30.8997 25.7998H51.3997C53.3996 25.7998 55.0997 27.4998 55.0997 29.4998V41.5998L59.9996 45.9998C60.2996 46.1998 60.4997 46.4998 60.4997 46.7998C60.5997 47.4999 60.0997 47.9999 59.5998 47.9999ZM30.8997 27.8998C29.9997 27.8998 29.1997 28.6998 29.1997 29.5998V44.2998C29.1997 45.1998 29.9997 45.9998 30.8997 45.9998H56.8997L53.4997 42.8998C53.2996 42.6998 53.1997 42.3998 53.1997 42.1999V29.4999C53.1997 28.5999 52.3997 27.7999 51.4997 27.7999H30.8997V27.8998Z" fill="#193651"/>
<path d="M50.5003 30.3999H31.8003V43.2999H50.5003V30.3999Z" fill="white"/>
<path d="M47.7001 33.3H47.5001C47.0031 33.3 46.6001 33.703 46.6001 34.2001C46.6001 34.6971 47.0031 35.1001 47.5001 35.1001H47.7001C48.1971 35.1001 48.6001 34.6971 48.6001 34.2001C48.6001 33.703 48.1971 33.3 47.7001 33.3Z" fill="#193651"/>
<path d="M43.3998 33.3H43.1998C42.7028 33.3 42.2998 33.703 42.2998 34.2001C42.2998 34.6971 42.7028 35.1001 43.1998 35.1001H43.3998C43.8968 35.1001 44.2998 34.6971 44.2998 34.2001C44.2998 33.703 43.8968 33.3 43.3998 33.3Z" fill="#193651"/>
<path d="M39.2001 33.3H39.0001C38.5031 33.3 38.1001 33.703 38.1001 34.2001C38.1001 34.6971 38.5031 35.1001 39.0001 35.1001H39.2001C39.6971 35.1001 40.1001 34.6971 40.1001 34.2001C40.1001 33.703 39.6971 33.3 39.2001 33.3Z" fill="#193651"/>
<path d="M34.8998 33.3H34.6998C34.2028 33.3 33.7998 33.703 33.7998 34.2001C33.7998 34.6971 34.2028 35.1001 34.6998 35.1001H34.8998C35.3968 35.1001 35.7998 34.6971 35.7998 34.2001C35.7998 33.703 35.3968 33.3 34.8998 33.3Z" fill="#193651"/>
<path d="M32.8001 39.7H12.3001C10.8002 39.7 9.6002 40.8999 9.6002 42.3999V54.9998L4.2002 59.7998H32.8002C34.3002 59.7998 35.5002 58.5998 35.5002 57.0998V42.3999C35.5002 40.8999 34.3002 39.7 32.8001 39.7Z" fill="#72CA1A"/>
<path d="M32.7996 60.8001H4.19974C3.79975 60.8001 3.39975 60.5002 3.29972 60.2001C3.19969 59.8001 3.29972 59.4001 3.59969 59.1001L8.69973 54.6001V42.4002C8.69973 40.4002 10.3997 38.7002 12.3997 38.7002H32.8997C34.8997 38.7002 36.5997 40.4002 36.5997 42.4002V57.1001C36.4998 59.2002 34.7998 60.8001 32.7996 60.8001ZM6.79978 58.8H32.7998C33.6998 58.8 34.4998 58 34.4998 57.1V42.4001C34.4998 41.5 33.6998 40.7 32.7998 40.7H12.2997C11.3997 40.7 10.5997 41.5 10.5997 42.4001V55C10.5997 55.3 10.4996 55.6001 10.2997 55.7L6.79978 58.8Z" fill="#193651"/>
<path d="M31.9002 43.3H13.2002V56.2001H31.9002V43.3Z" fill="white"/>
<path d="M16.2001 51.5999H16.0001C15.5031 51.5999 15.1001 52.0028 15.1001 52.4999C15.1001 52.9969 15.5031 53.3999 16.0001 53.3999H16.2001C16.6971 53.3999 17.1001 52.9969 17.1001 52.4999C17.1001 52.0028 16.6971 51.5999 16.2001 51.5999Z" fill="#193651"/>
<path d="M16.2001 45.5999H16.0001C15.5031 45.5999 15.1001 46.0028 15.1001 46.4999C15.1001 46.9969 15.5031 47.3999 16.0001 47.3999H16.2001C16.6971 47.3999 17.1001 46.9969 17.1001 46.4999C17.1001 46.0028 16.6971 45.5999 16.2001 45.5999Z" fill="#193651"/>
<path d="M20.4999 51.5999H20.2999C19.8029 51.5999 19.3999 52.0028 19.3999 52.4999C19.3999 52.9969 19.8029 53.3999 20.2999 53.3999H20.4999C20.9969 53.3999 21.3999 52.9969 21.3999 52.4999C21.3999 52.0028 20.9969 51.5999 20.4999 51.5999Z" fill="#193651"/>
<path d="M20.4999 45.5999H20.2999C19.8029 45.5999 19.3999 46.0028 19.3999 46.4999C19.3999 46.9969 19.8029 47.3999 20.2999 47.3999H20.4999C20.9969 47.3999 21.3999 46.9969 21.3999 46.4999C21.3999 46.0028 20.9969 45.5999 20.4999 45.5999Z" fill="#193651"/>
<path d="M24.7001 51.5999H24.5001C24.0031 51.5999 23.6001 52.0028 23.6001 52.4999C23.6001 52.9969 24.0031 53.3999 24.5001 53.3999H24.7001C25.1971 53.3999 25.6001 52.9969 25.6001 52.4999C25.6001 52.0028 25.1971 51.5999 24.7001 51.5999Z" fill="#193651"/>
<path d="M24.6996 45.5999H24.4996C24.0026 45.5999 23.5996 46.0028 23.5996 46.4999C23.5996 46.9969 24.0026 47.3999 24.4996 47.3999H24.6996C25.1966 47.3999 25.5996 46.9969 25.5996 46.4999C25.5996 46.0028 25.1966 45.5999 24.6996 45.5999Z" fill="#193651"/>
<path d="M28.9999 51.5999H28.7999C28.3029 51.5999 27.8999 52.0028 27.8999 52.4999C27.8999 52.9969 28.3029 53.3999 28.7999 53.3999H28.9999C29.4969 53.3999 29.8999 52.9969 29.8999 52.4999C29.8999 52.0028 29.4969 51.5999 28.9999 51.5999Z" fill="#193651"/>
<path d="M28.9999 45.5999H28.7999C28.3029 45.5999 27.8999 46.0028 27.8999 46.4999C27.8999 46.9969 28.3029 47.3999 28.7999 47.3999H28.9999C29.4969 47.3999 29.8999 46.9969 29.8999 46.4999C29.8999 46.0028 29.4969 45.5999 28.9999 45.5999Z" fill="#193651"/>
<path d="M34.3001 20.0002H34.1002C33.6031 20.0002 33.2002 20.4032 33.2002 20.9003C33.2002 21.3973 33.6031 21.8003 34.1002 21.8003H34.3001C34.7972 21.8003 35.2002 21.3973 35.2002 20.9003C35.2002 20.4032 34.7972 20.0002 34.3001 20.0002Z" fill="#193651"/>
<path d="M29.6 20.0002H29.4C28.903 20.0002 28.5 20.4032 28.5 20.9003C28.5 21.3973 28.903 21.8003 29.4 21.8003H29.6C30.097 21.8003 30.5 21.3973 30.5 20.9003C30.5 20.4032 30.097 20.0002 29.6 20.0002Z" fill="#193651"/>
<path d="M24.9999 20.0002H24.7999C24.3029 20.0002 23.8999 20.4032 23.8999 20.9003C23.8999 21.3973 24.3029 21.8003 24.7999 21.8003H24.9999C25.4969 21.8003 25.8999 21.3973 25.8999 20.9003C25.8999 20.4032 25.4969 20.0002 24.9999 20.0002Z" fill="#193651"/>
<path d="M45.7997 9.6001H45.5997C45.1027 9.6001 44.6997 10.0031 44.6997 10.5001C44.6997 10.9972 45.1027 11.4001 45.5997 11.4001H45.7997C46.2967 11.4001 46.6997 10.9972 46.6997 10.5001C46.6997 10.0031 46.2967 9.6001 45.7997 9.6001Z" fill="#193651"/>
<path d="M41.1 9.6001H40.9C40.403 9.6001 40 10.0031 40 10.5001C40 10.9972 40.403 11.4001 40.9 11.4001H41.1C41.597 11.4001 42 10.9972 42 10.5001C42 10.0031 41.597 9.6001 41.1 9.6001Z" fill="#193651"/>
<path d="M36.4999 9.6001H36.2999C35.8029 9.6001 35.3999 10.0031 35.3999 10.5001C35.3999 10.9972 35.8029 11.4001 36.2999 11.4001H36.4999C36.9969 11.4001 37.3999 10.9972 37.3999 10.5001C37.3999 10.0031 36.9969 9.6001 36.4999 9.6001Z" fill="#193651"/>
</svg>

<svg width="64" height="64" fill="none" xmlns="http://www.w3.org/2000/svg"><path d="M32 64c17.673 0 32-14.327 32-32C64 14.327 49.673 0 32 0 14.327 0 0 14.327 0 32c0 17.673 14.327 32 32 32z" fill="#72CA1A"/><path d="M32.3 4.2h17.5c1.3 0 2.3 1 2.3 2.3v10.7l4.6 4.1H32.3c-1.3 0-2.3-1-2.3-2.3V6.5c0-1.3 1.1-2.3 2.3-2.3z" fill="#434752"/><path d="M56.7 22.3s-.1 0 0 0H32.3c-1.8 0-3.3-1.5-3.3-3.3V6.5c0-1.8 1.5-3.3 3.3-3.3h17.5c1.8 0 3.3 1.5 3.3 3.3v10.2l4.1 3.7c.3.2.5.5.5.8 0 .6-.5 1.1-1 1.1zM32.3 5.2c-.7 0-1.3.6-1.3 1.3V19c0 .7.6 1.3 1.3 1.3H54l-2.6-2.4c-.2-.2-.3-.5-.3-.7V6.5c0-.7-.6-1.3-1.3-1.3H32.3z" fill="#193651"/><path d="M48.4 7.8H33.6v9.9h14.8V7.8z" fill="#fff"/><path d="M38.3 14H20.8c-1.3 0-2.3 1-2.3 2.3V27l-4.6 4.1h24.3c1.3 0 2.3-1 2.3-2.3V16.3c0-1.3-1-2.3-2.2-2.3z" fill="#4AA200"/><path d="M38.3 32.1H13.9c-.4 0-.8-.3-.9-.6-.1-.4 0-.8.3-1.1l4.2-3.8V16.3c0-1.8 1.5-3.3 3.3-3.3h17.5c1.8 0 3.3 1.5 3.3 3.3v12.5c-.1 1.8-1.5 3.3-3.3 3.3zm-21.8-2h21.7c.7 0 1.3-.6 1.3-1.3V16.3c0-.7-.6-1.3-1.3-1.3H20.8c-.7 0-1.3.6-1.3 1.3V27c0 .3-.1.6-.3.7l-2.7 2.4z" fill="#193651"/><path d="M36.9 17.6H22.1v9.9h14.8v-9.9z" fill="#fff"/><path d="M30.9 26.9h20.5c1.5 0 2.7 1.2 2.7 2.7v12.6l5.4 4.8H30.9c-1.5 0-2.7-1.2-2.7-2.7V29.5c.1-1.4 1.3-2.6 2.7-2.6z" fill="#575B66"/><path d="M59.6 48H30.9c-2 0-3.7-1.7-3.7-3.7V29.5c0-2 1.7-3.7 3.7-3.7h20.5c2 0 3.7 1.7 3.7 3.7v12.1L60 46c.3.2.5.5.5.8.1.7-.4 1.2-.9 1.2zM30.9 27.9c-.9 0-1.7.8-1.7 1.7v14.7c0 .9.8 1.7 1.7 1.7h26l-3.4-3.1c-.2-.2-.3-.5-.3-.7V29.5c0-.9-.8-1.7-1.7-1.7H30.9v.1z" fill="#193651"/><path d="M50.5 30.4H31.8v12.9h18.7V30.4z" fill="#fff"/><path d="M47.7 33.3h-.2a.9.9 0 0 0 0 1.8h.2a.9.9 0 0 0 0-1.8zM43.4 33.3h-.2a.9.9 0 0 0 0 1.8h.2a.9.9 0 0 0 0-1.8zM39.2 33.3H39a.9.9 0 0 0 0 1.8h.2a.9.9 0 0 0 0-1.8zM34.9 33.3h-.2a.9.9 0 0 0 0 1.8h.2a.9.9 0 0 0 0-1.8z" fill="#193651"/><path d="M32.8 39.7H12.3c-1.5 0-2.7 1.2-2.7 2.7V55l-5.4 4.8h28.6c1.5 0 2.7-1.2 2.7-2.7V42.4c0-1.5-1.2-2.7-2.7-2.7z" fill="#72CA1A"/><path d="M32.8 60.8H4.2c-.4 0-.8-.3-.9-.6-.1-.4 0-.8.3-1.1l5.1-4.5V42.4c0-2 1.7-3.7 3.7-3.7h20.5c2 0 3.7 1.7 3.7 3.7v14.7c-.1 2.1-1.8 3.7-3.8 3.7zm-26-2h26c.9 0 1.7-.8 1.7-1.7V42.4c0-.9-.8-1.7-1.7-1.7H12.3c-.9 0-1.7.8-1.7 1.7V55c0 .3-.1.6-.3.7l-3.5 3.1z" fill="#193651"/><path d="M31.9 43.3H13.2v12.9h18.7V43.3z" fill="#fff"/><path d="M16.2 51.6H16a.9.9 0 0 0 0 1.8h.2a.9.9 0 0 0 0-1.8zM16.2 45.6H16a.9.9 0 0 0 0 1.8h.2a.9.9 0 0 0 0-1.8zM20.5 51.6h-.2a.9.9 0 0 0 0 1.8h.2a.9.9 0 0 0 0-1.8zM20.5 45.6h-.2a.9.9 0 0 0 0 1.8h.2a.9.9 0 0 0 0-1.8zM24.7 51.6h-.2a.9.9 0 0 0 0 1.8h.2a.9.9 0 0 0 0-1.8zM24.7 45.6h-.2a.9.9 0 0 0 0 1.8h.2a.9.9 0 0 0 0-1.8zM29 51.6h-.2a.9.9 0 0 0 0 1.8h.2a.9.9 0 0 0 0-1.8zM29 45.6h-.2a.9.9 0 0 0 0 1.8h.2a.9.9 0 0 0 0-1.8zM34.3 20h-.2a.9.9 0 0 0 0 1.8h.2a.9.9 0 1 0 0-1.8zM29.6 20h-.2a.9.9 0 0 0 0 1.8h.2a.9.9 0 0 0 0-1.8zM25 20h-.2a.9.9 0 0 0 0 1.8h.2a.9.9 0 0 0 0-1.8zM45.8 9.6h-.2a.9.9 0 0 0 0 1.8h.2a.9.9 0 0 0 0-1.8zM41.1 9.6h-.2a.9.9 0 0 0 0 1.8h.2a.9.9 0 0 0 0-1.8zM36.5 9.6h-.2a.9.9 0 0 0 0 1.8h.2a.9.9 0 0 0 0-1.8z" fill="#193651"/></svg>
